X: 28
T: the Mist-Covered Mountain
R: jig, waltz
Z: John Chambers <jc:trillian.mit.edu>
D: De Danaan ________
M: 3/4
L: 1/8
K: ADor
D \
| "Am"E2A ABd | e2A AGE | "G"G2G GAB | dBA GED \
| "Am"E2A ABd | e2A "G"B^cd | "C"efg "G"dBG | "Em"BAG "Am"A2 :|
a \
| "Am"a>ge a2b | age edB | "G"AGE G2A | BAB deg \
| "Am"a>ge a2b | age edB | "G"AGE G2A | BAG "Am"A2 |]
a \
| "Am"a>ge a2b | age edB | "G"AGE G2A | BAB GED \
| "Am"EDE G2A | "G"BAG B^cd | "C"efg "G"dBG | "Em"BAG "Am"A2 |]
%%text Played as both jig and waltz.

%%sep 1 1 500

